X:82b
T:The Wanderer Boy
O:No 82 Wm Clarke MS  Feltwell, Norfolk
N:Key G in MS Barring and time sig changed from 6/8 in original 
I:abc2nwc
M:2/2
L:1/8
K:D
Ad(cd) (e/2c3/2)Af|(ef)a/2g3/2 (ed)(fA)|Bf(ec) Bc d2:|
a2a2f2d2|a2g2e2c2|a2a2f2d2|a2g2e2c2|
Ad(cd) (e/2c3/2)Af|(ef)a/2g3/2 (ed)(fA)|Bf(ec) Bc d2|]

